public/library/marinade-icon-dark.svg

<svg width="169" height="32" viewBox="0 0 169 32" fill="none" xmlns="http://www.w3.org/2000/svg">
<path d="M48.3725 8.11901C48.3725 3.33832 44.3211 0 38.5216 0C33.8062 0 30.5561 2.33765 26.7923 5.04478C26.1627 5.49715 25.5117 5.9661 24.8406 6.43269C22.9043 7.77796 20.8922 9.09007 19.0564 10.2494C18.873 10.3655 18.6446 10.3809 18.4481 10.2909C16.9875 9.62416 14.0949 8.55599 10.5382 8.55599C2.64139 8.55599 0.984375 12.9104 0.984375 16.5637C0.984375 19.465 2.72069 21.8808 6.00393 23.5494C7.01353 24.0622 8.01839 24.4269 8.83742 24.6756C9.47419 24.8698 9.97957 25.3542 10.1938 25.9842C10.408 26.6142 10.6613 27.2892 10.975 27.9831C11.3218 28.7505 11.736 29.5925 12.2035 30.4866C12.7042 31.441 13.6948 32 14.7186 32C15.0879 32 15.4619 31.9278 15.8182 31.775C21.0662 29.5285 29.2932 26.7302 38.6885 26.1547C40.3206 26.054 41.5586 24.6934 41.5078 23.0556C41.4841 22.2894 41.445 21.5753 41.3929 20.9346C41.3539 20.4539 41.3018 19.979 41.2474 19.5408C41.1444 18.7095 41.4734 17.8841 42.122 17.3548C42.7706 16.8254 43.5151 16.1812 44.2726 15.4375C46.9936 12.7671 48.3737 10.3051 48.3737 8.11901H48.3725ZM16.0573 28.8571C15.8052 28.9577 15.5353 29.0158 15.2643 28.9956C14.605 28.9459 14.0049 28.535 13.7351 27.8979C13.5919 27.5592 13.4569 27.2323 13.3161 26.9232C13.019 26.266 12.7716 25.5922 12.5823 25.0214C12.4 24.4707 12.6474 23.8691 13.167 23.6134C14.3269 23.0414 16.2135 22.3474 18.0386 21.8643C18.2149 21.8181 18.3688 21.7032 18.4505 21.541C19.1192 20.2194 18.0457 19.1867 17.0254 19.471C16.9603 19.4887 15.4075 19.9198 13.7895 20.5427C12.8296 20.9121 12.0591 21.2615 11.4531 21.6097C10.569 22.1177 9.51088 22.2243 8.55573 21.8654C6.36256 21.0412 3.55392 19.4259 3.55392 16.5661C3.55392 14.0366 4.34692 11.134 10.5335 11.134C12.0627 11.134 13.4581 11.3685 14.6263 11.6729C15.1885 11.8197 15.295 12.5729 14.7956 12.8725C13.2084 13.8258 12.1858 14.412 12.1597 14.4274C11.5431 14.7803 11.3289 15.5678 11.6816 16.1847C12.0343 16.8017 12.8213 17.0161 13.438 16.6632C13.4794 16.6395 16.0655 15.1557 19.4589 13.0371C19.4766 13.0264 19.4944 13.0146 19.5121 13.0039C21.6082 11.6954 24.0062 10.1464 26.3023 8.55244C26.9912 8.07401 27.6516 7.59914 28.2895 7.14085C31.832 4.59359 34.63 2.58042 38.5168 2.58042C42.8701 2.58042 45.7947 4.80794 45.7947 8.12375C45.7947 10.5301 42.5978 13.6505 40.3845 15.4493C39.7785 15.942 38.995 16.1528 38.2198 16.0533C37.9973 16.0249 37.7736 16 37.5499 15.9787C37.0776 15.9349 36.8054 15.4209 37.0338 15.0041C38.1393 12.9944 38.6033 11.7569 38.6293 11.6871C38.8755 11.0204 38.537 10.2814 37.8706 10.0339C37.2054 9.78521 36.4645 10.1251 36.216 10.7906C36.2089 10.8107 35.4833 12.7268 33.6665 15.6649C33.5565 15.8425 33.3671 15.9574 33.1576 15.9739C32.7067 16.0095 32.3599 15.5843 32.4806 15.1497C32.7978 14.0093 32.8522 13.4871 32.8593 13.403C32.9197 12.6948 32.3966 12.0625 31.6876 12.0021C30.9763 11.9429 30.3561 12.458 30.2957 13.1673C30.2957 13.1768 30.1951 14.0235 29.4838 16.1149C29.4068 16.3422 29.2115 16.5128 28.976 16.5601C27.3178 16.887 26.2088 17.2174 26.0916 17.2529C25.4111 17.459 25.0264 18.1766 25.2324 18.8575C25.4371 19.5373 26.1544 19.9245 26.8361 19.7185C26.8669 19.709 28.1866 19.3182 30.1052 18.9748L30.1643 18.9665C30.2768 18.957 30.8591 18.8481 30.8851 18.8433C32.7232 18.5556 34.9649 18.3495 37.1297 18.5283C37.9475 18.5958 38.6092 19.2223 38.7074 20.037C38.75 20.3946 38.7891 20.7712 38.821 21.1502C38.8494 21.496 38.8731 21.8654 38.8932 22.2551C38.9133 22.6447 38.8056 23.4973 37.9262 23.5387C37.1486 23.5755 33.7447 23.5932 26.932 25.2263C21.7337 26.4721 17.0976 28.445 16.0537 28.863L16.0573 28.8571Z" fill="white"/>
<path d="M127.831 23.3356C125.607 23.3356 124.073 21.4178 124.073 18.6814C124.073 15.945 125.633 14.0781 127.882 14.0781C130.131 14.0781 131.614 15.945 131.614 18.6292C131.614 21.3135 130.055 23.3344 127.831 23.3344V23.3356ZM127.268 25.8931C128.828 25.8931 130.004 25.1776 130.898 23.9492C131.026 23.7704 131.154 23.6933 131.282 23.6933C131.46 23.6933 131.614 23.8722 131.614 24.2051V24.8696C131.614 25.2534 131.87 25.5093 132.254 25.5093H133.992C134.401 25.5093 134.632 25.2795 134.632 24.8696V12.595C134.632 12.1863 134.402 11.9553 133.992 11.9553H132.254C131.845 11.9553 131.614 12.1851 131.614 12.595V12.8248C131.614 13.1576 131.487 13.3614 131.308 13.3614C131.18 13.3614 131.052 13.2844 130.899 13.1055C129.953 12.0311 128.649 11.5454 127.167 11.5454C123.562 11.5454 120.98 14.4607 120.98 18.6541C120.98 22.8476 123.613 25.8908 127.268 25.8908V25.8931ZM58.6582 25.5093H60.4475C60.8051 25.5093 61.087 25.2286 61.087 24.8696V15.7412C61.087 15.2555 61.2918 14.9997 61.5476 14.9997C61.7525 14.9997 61.9562 15.1537 62.1101 15.5363L65.536 24.2051C65.8688 25.0746 66.4822 25.5093 67.4023 25.5093C68.3224 25.5093 68.911 25.0746 69.2426 24.2051L72.6685 15.5114C72.8224 15.1276 73.0261 14.9748 73.231 14.9748C73.4867 14.9748 73.6916 15.2307 73.6916 15.7164V24.8708C73.6916 25.2286 73.9723 25.5105 74.3311 25.5105H76.1204C76.478 25.5105 76.7599 25.2298 76.7599 24.8708V9.78395C76.7599 8.37784 76.0695 7.61023 74.8166 7.61023C73.5637 7.61023 72.7715 8.17291 72.312 9.32314L67.4035 21.8276L62.4701 9.32314C62.0095 8.17291 61.2172 7.61023 59.9655 7.61023H59.9146C58.6878 7.61023 58.0234 8.37784 58.0234 9.78395V24.8708C58.0234 25.2286 58.3041 25.5105 58.6629 25.5105L58.6582 25.5093ZM85.0138 23.3356C82.7898 23.3356 81.2563 21.4178 81.2563 18.6814C81.2563 15.945 82.8159 14.0781 85.0647 14.0781C87.3135 14.0781 88.7973 15.945 88.7973 18.6292C88.7973 21.3135 87.2377 23.3344 85.0138 23.3344V23.3356ZM84.4513 25.8931C86.0108 25.8931 87.1868 25.1776 88.0808 23.9492C88.2087 23.7704 88.3366 23.6933 88.4645 23.6933C88.6433 23.6933 88.7973 23.8722 88.7973 24.2051V24.8696C88.7973 25.2534 89.0531 25.5093 89.4367 25.5093H91.1751C91.5837 25.5093 91.8146 25.2795 91.8146 24.8696V12.595C91.8146 12.1863 91.5849 11.9553 91.1751 11.9553H89.4367C89.0282 11.9553 88.7973 12.1851 88.7973 12.595V12.8248C88.7973 13.1576 88.6694 13.3614 88.4906 13.3614C88.3627 13.3614 88.2348 13.2844 88.082 13.1055C87.1358 12.0311 85.832 11.5454 84.3494 11.5454C80.7447 11.5454 78.1631 14.4607 78.1631 18.6541C78.1631 22.8476 80.7956 25.8908 84.4513 25.8908V25.8931ZM142.887 23.3356C140.663 23.3356 139.129 21.4178 139.129 18.6814C139.129 15.945 140.689 14.0781 142.938 14.0781C145.187 14.0781 146.67 15.945 146.67 18.6292C146.67 21.3135 145.111 23.3344 142.887 23.3344V23.3356ZM142.324 25.8931C143.884 25.8931 145.06 25.1776 145.954 23.9492C146.082 23.7704 146.21 23.6933 146.338 23.6933C146.516 23.6933 146.67 23.8722 146.67 24.2051V24.8696C146.67 25.2534 146.926 25.5093 147.31 25.5093H149.048C149.457 25.5093 149.688 25.2795 149.688 24.8696V6.96937C149.688 6.56069 149.458 6.32969 149.048 6.32969H147.31C146.901 6.32969 146.67 6.5595 146.67 6.96937V12.8248C146.67 13.1576 146.542 13.3614 146.364 13.3614C146.236 13.3614 146.108 13.2844 145.955 13.1055C145.009 12.0311 143.705 11.5454 142.222 11.5454C138.618 11.5454 136.036 14.4607 136.036 18.6541C136.036 22.8476 138.669 25.8908 142.324 25.8908V25.8931ZM160.424 17.2243H155.005C154.647 17.2243 154.417 17.0455 154.417 16.7635C154.417 16.6865 154.417 16.5847 154.468 16.4828C155.056 14.9997 156.258 14.1041 157.817 14.1041C159.377 14.1041 160.45 14.9997 160.961 16.5077C160.987 16.6095 161.012 16.6865 161.012 16.7635C161.012 17.0443 160.782 17.2243 160.425 17.2243H160.424ZM158.072 25.8931C161.011 25.8931 163.159 24.41 164.028 21.9046C164.054 21.8028 164.079 21.7258 164.079 21.6488C164.079 21.368 163.951 21.214 163.594 21.214H161.778C161.421 21.214 161.242 21.368 161.088 21.6997C160.526 22.748 159.451 23.3368 158.097 23.3368C156.026 23.3368 154.62 22.0326 154.211 20.0377C154.11 19.603 154.365 19.3471 154.799 19.3471H163.644C164.052 19.3471 164.283 19.1173 164.283 18.7074V18.6304C164.283 14.2321 161.651 11.5478 157.816 11.5478C153.982 11.5478 151.093 14.3091 151.093 18.7844C151.093 22.9269 153.931 25.8931 158.072 25.8931ZM108.173 25.5093H109.912C110.32 25.5093 110.551 25.2795 110.551 24.8696V17.3771C110.551 15.6133 111.906 14.1811 113.874 14.1811C115.561 14.1811 116.558 15.1786 116.558 16.6865V24.8696C116.558 25.2783 116.788 25.5093 117.198 25.5093H118.936C119.345 25.5093 119.576 25.2795 119.576 24.8696V16.5337C119.576 13.4905 117.736 11.5478 115.051 11.5478C113.185 11.5478 112.239 12.1875 111.294 13.1328C111.115 13.3116 110.961 13.3886 110.833 13.3886C110.654 13.3886 110.552 13.2346 110.552 12.9278V12.544C110.552 12.1353 110.272 11.9565 109.888 11.9565H108.176C107.767 11.9565 107.536 12.1863 107.536 12.5962V24.8708C107.536 25.2795 107.766 25.5105 108.176 25.5105L108.173 25.5093ZM103.419 25.5093H105.157C105.566 25.5093 105.796 25.2795 105.796 24.8696V12.595C105.796 12.1863 105.567 11.9553 105.157 11.9553H103.419C103.01 11.9553 102.779 12.1851 102.779 12.595V24.8696C102.779 25.2783 103.009 25.5093 103.419 25.5093ZM104.288 10.1417C105.413 10.1417 106.231 9.2722 106.231 8.17291C106.231 7.07361 105.413 6.229 104.288 6.229C103.163 6.229 102.345 7.07243 102.345 8.17291C102.345 9.27339 103.188 10.1417 104.288 10.1417ZM94.1901 25.5093H95.9285C96.3371 25.5093 96.568 25.2795 96.568 24.8696V18.5025C96.568 15.971 97.77 14.7438 100.965 14.7438C101.298 14.7438 101.477 14.514 101.477 14.1041V12.4422C101.477 12.0335 101.298 11.8025 100.965 11.8025C99.2775 11.8025 98.2294 12.1863 97.2844 13.4135C97.1305 13.6185 96.9777 13.7203 96.8498 13.7203C96.671 13.7203 96.5692 13.5663 96.5692 13.2595V12.544C96.5692 12.1353 96.2885 11.9565 95.9049 11.9565H94.1925C93.7839 11.9565 93.553 12.1863 93.553 12.5962V24.8708C93.553 25.2795 93.7828 25.5105 94.1925 25.5105L94.1901 25.5093Z" fill="white"/>
</svg>

<svg xmlns="http://www.w3.org/2000/svg" width="169" height="32" fill="none" viewBox="0 0 169 32"><path fill="#fff" d="M48.373 8.119C48.373 3.339 44.32 0 38.522 0c-4.716 0-7.966 2.338-11.73 5.045-.63.452-1.28.921-1.951 1.388a160 160 0 0 1-5.785 3.816.64.64 0 0 1-.608.042c-1.46-.667-4.353-1.735-7.91-1.735-7.897 0-9.554 4.354-9.554 8.008 0 2.901 1.737 5.317 5.02 6.985 1.01.513 2.014.878 2.833 1.127a2.06 2.06 0 0 1 1.357 1.308c.214.63.467 1.305.781 2 .347.766.761 1.608 1.229 2.503A2.85 2.85 0 0 0 14.719 32c.369 0 .743-.072 1.1-.225 5.247-2.246 13.474-5.045 22.87-5.62a2.994 2.994 0 0 0 2.819-3.1 43 43 0 0 0-.115-2.12c-.04-.481-.091-.956-.146-1.394a2.43 2.43 0 0 1 .875-2.186 32 32 0 0 0 2.15-1.918c2.722-2.67 4.102-5.132 4.102-7.318zM16.057 28.857a1.8 1.8 0 0 1-.793.139c-.659-.05-1.26-.461-1.529-1.098-.143-.339-.278-.666-.419-.975a20 20 0 0 1-.734-1.902 1.16 1.16 0 0 1 .585-1.408c1.16-.572 3.047-1.266 4.872-1.749a.64.64 0 0 0 .412-.323c.668-1.322-.405-2.354-1.426-2.07a39 39 0 0 0-3.235 1.072c-.96.37-1.73.719-2.337 1.067a3.4 3.4 0 0 1-2.897.255c-2.193-.824-5.002-2.44-5.002-5.299 0-2.53.793-5.432 6.98-5.432 1.529 0 2.924.234 4.092.539.563.147.669.9.17 1.2-1.588.953-2.61 1.539-2.636 1.554a1.289 1.289 0 0 0 1.278 2.236c.041-.023 2.627-1.507 6.02-3.626q.028-.016.054-.033a170 170 0 0 0 6.79-4.452c.69-.478 1.35-.953 1.988-1.411 3.542-2.547 6.34-4.56 10.227-4.56 4.353 0 7.278 2.227 7.278 5.543 0 2.406-3.197 5.526-5.41 7.325a2.85 2.85 0 0 1-2.165.604 21 21 0 0 0-.67-.074.66.66 0 0 1-.516-.975c1.105-2.01 1.57-3.247 1.595-3.317a1.287 1.287 0 0 0-2.413-.896c-.007.02-.733 1.936-2.55 4.874a.66.66 0 0 1-.508.309.65.65 0 0 1-.677-.824c.317-1.14.371-1.663.378-1.747a1.294 1.294 0 0 0-1.171-1.4 1.28 1.28 0 0 0-1.392 1.164c0 .01-.1.857-.812 2.948a.68.68 0 0 1-.508.445 32 32 0 0 0-2.884.693 1.287 1.287 0 0 0-.86 1.605c.205.68.922 1.066 1.604.86.03-.009 1.35-.4 3.27-.743l.058-.009c.113-.009.695-.118.721-.123 1.838-.287 4.08-.494 6.245-.315.817.068 1.48.694 1.577 1.509a33 33 0 0 1 .186 2.218c.02.39-.087 1.242-.967 1.284-.777.037-4.181.054-10.994 1.687-5.198 1.246-9.834 3.219-10.878 3.637zM127.831 23.336c-2.224 0-3.758-1.918-3.758-4.655s1.56-4.603 3.809-4.603 3.732 1.867 3.732 4.551-1.559 4.705-3.783 4.705zm-.563 2.557c1.56 0 2.736-.715 3.63-1.944.128-.179.256-.256.384-.256.178 0 .332.18.332.512v.665c0 .383.256.64.64.64h1.738c.409 0 .64-.23.64-.64V12.595c0-.409-.23-.64-.64-.64h-1.738c-.409 0-.64.23-.64.64v.23c0 .333-.127.536-.306.536-.128 0-.256-.077-.409-.256-.946-1.074-2.25-1.56-3.732-1.56-3.605 0-6.187 2.916-6.187 7.11 0 4.193 2.633 7.236 6.288 7.236zm-68.61-.384h1.79c.357 0 .639-.28.639-.64v-9.128c0-.486.205-.741.46-.741.206 0 .41.154.563.536l3.426 8.67c.333.869.946 1.303 1.866 1.303s1.509-.434 1.84-1.304l3.426-8.694c.154-.383.358-.536.563-.536.256 0 .46.256.46.741v9.155c0 .358.281.64.64.64h1.79c.357 0 .639-.281.639-.64V9.784c0-1.406-.69-2.174-1.943-2.174s-2.045.563-2.505 1.713l-4.909 12.505L62.47 9.323c-.46-1.15-1.253-1.713-2.504-1.713h-.051c-1.227 0-1.892.768-1.892 2.174V24.87c0 .358.281.64.64.64zm26.356-2.173c-2.224 0-3.758-1.918-3.758-4.655s1.56-4.603 3.809-4.603 3.732 1.867 3.732 4.551-1.56 4.705-3.783 4.705zm-.563 2.557c1.56 0 2.736-.715 3.63-1.944.128-.179.256-.256.383-.256.18 0 .333.18.333.512v.665c0 .383.256.64.64.64h1.738c.409 0 .64-.23.64-.64V12.595c0-.409-.23-.64-.64-.64h-1.738c-.409 0-.64.23-.64.64v.23c0 .333-.128.536-.306.536-.128 0-.256-.077-.409-.256-.946-1.074-2.25-1.56-3.733-1.56-3.604 0-6.186 2.916-6.186 7.11 0 4.193 2.633 7.236 6.288 7.236zm58.436-2.557c-2.224 0-3.758-1.918-3.758-4.655s1.56-4.603 3.809-4.603 3.732 1.867 3.732 4.551-1.559 4.705-3.783 4.705zm-.563 2.557c1.56 0 2.736-.715 3.63-1.944.128-.179.256-.256.384-.256.178 0 .332.18.332.512v.665c0 .383.256.64.64.64h1.738c.409 0 .64-.23.64-.64V6.97c0-.41-.23-.64-.64-.64h-1.738c-.409 0-.64.23-.64.64v5.855c0 .333-.128.536-.306.536-.128 0-.256-.077-.409-.256-.946-1.074-2.25-1.56-3.733-1.56-3.604 0-6.186 2.916-6.186 7.11 0 4.193 2.633 7.236 6.288 7.236zm18.1-8.669h-5.419c-.358 0-.588-.178-.588-.46 0-.078 0-.18.051-.281.588-1.483 1.79-2.379 3.349-2.379s2.633.896 3.144 2.404c.026.102.051.178.051.256 0 .28-.23.46-.587.46zm-2.352 8.67c2.939 0 5.087-1.484 5.956-3.99.026-.101.051-.178.051-.255 0-.281-.128-.435-.485-.435h-1.816c-.357 0-.536.154-.69.486-.562 1.048-1.637 1.637-2.991 1.637-2.071 0-3.477-1.304-3.886-3.3-.101-.434.154-.69.588-.69h8.845c.408 0 .639-.23.639-.64v-.077c0-4.398-2.632-7.082-6.467-7.082s-6.723 2.761-6.723 7.236c0 4.143 2.838 7.11 6.979 7.11m-49.899-.385h1.739c.408 0 .639-.23.639-.64v-7.492c0-1.764 1.355-3.196 3.323-3.196 1.687 0 2.684.998 2.684 2.505v8.184c0 .408.23.64.64.64h1.738c.409 0 .64-.23.64-.64v-8.336c0-3.043-1.84-4.986-4.525-4.986-1.866 0-2.812.64-3.757 1.585-.179.179-.333.256-.461.256-.179 0-.281-.154-.281-.461v-.384c0-.409-.28-.588-.664-.588h-1.712c-.409 0-.64.23-.64.64v12.275c0 .409.23.64.64.64zm-4.754 0h1.738c.409 0 .639-.23.639-.64V12.596c0-.409-.229-.64-.639-.64h-1.738c-.409 0-.64.23-.64.64V24.87c0 .408.23.64.64.64m.869-15.367c1.125 0 1.943-.87 1.943-1.97 0-1.098-.818-1.943-1.943-1.943s-1.943.843-1.943 1.944.843 1.969 1.943 1.969M94.19 25.509h1.739c.408 0 .639-.23.639-.64v-6.366c0-2.532 1.202-3.76 4.397-3.76.333 0 .512-.229.512-.639v-1.662c0-.409-.179-.64-.512-.64-1.687 0-2.736.384-3.68 1.612-.154.204-.307.306-.435.306-.179 0-.28-.154-.28-.46v-.716c0-.409-.281-.588-.665-.588h-1.713c-.408 0-.639.23-.639.64v12.275c0 .409.23.64.64.64z"/></svg>
